Numix-Circle/48x48/apps/chromium.svg

<?xml version="1.0" encoding="UTF-8" standalone="no"?>
<svg
   xmlns:dc="http://purl.org/dc/elements/1.1/"
   xmlns:cc="http://creativecommons.org/ns#"
   xmlns:rdf="http://www.w3.org/1999/02/22-rdf-syntax-ns#"
   xmlns:svg="http://www.w3.org/2000/svg"
   xmlns="http://www.w3.org/2000/svg"
   xmlns:xlink="http://www.w3.org/1999/xlink"
   xmlns:sodipodi="http://sodipodi.sourceforge.net/DTD/sodipodi-0.dtd"
   xmlns:inkscape="http://www.inkscape.org/namespaces/inkscape"
   viewBox="0 0 48 48"
   id="svg2"
   version="1.1"
   inkscape:version="0.48.4 r9939"
   width="100%"
   height="100%"
   sodipodi:docname="chromium.svg">
  <metadata
     id="metadata89">
    <rdf:RDF>
      <cc:Work
         rdf:about="">
        <dc:format>image/svg+xml</dc:format>
        <dc:type
           rdf:resource="http://purl.org/dc/dcmitype/StillImage" />
      </cc:Work>
    </rdf:RDF>
  </metadata>
  <sodipodi:namedview
     pagecolor="#ffffff"
     bordercolor="#666666"
     borderopacity="1"
     objecttolerance="10"
     gridtolerance="10"
     guidetolerance="10"
     inkscape:pageopacity="0"
     inkscape:pageshadow="2"
     inkscape:window-width="1280"
     inkscape:window-height="960"
     id="namedview87"
     showgrid="false"
     inkscape:zoom="4.9166667"
     inkscape:cx="5.3746253"
     inkscape:cy="10.842753"
     inkscape:window-x="0"
     inkscape:window-y="0"
     inkscape:window-maximized="1"
     inkscape:current-layer="svg2" />
  <defs
     id="defs4">
    <linearGradient
       id="linearGradient3764"
       x1="1"
       x2="47"
       gradientUnits="userSpaceOnUse"
       gradientTransform="matrix(0,-1,1,0,-1.5e-6,47.999998)">
      <stop
         stop-color="#e4e4e4"
         stop-opacity="1"
         id="stop7" />
      <stop
         offset="1"
         stop-color="#eee"
         stop-opacity="1"
         id="stop9" />
    </linearGradient>
    <clipPath
       id="clipPath-514802319">
      <g
         transform="translate(0,-1004.3622)"
         id="g12">
        <path
           d="m -24 13 c 0 1.105 -0.672 2 -1.5 2 -0.828 0 -1.5 -0.895 -1.5 -2 0 -1.105 0.672 -2 1.5 -2 0.828 0 1.5 0.895 1.5 2 z"
           transform="matrix(15.333333,0,0,11.5,414.99999,878.8622)"
           fill="#1890d0"
           id="path14" />
      </g>
    </clipPath>
    <clipPath
       id="clipPath-520496734">
      <g
         transform="translate(0,-1004.3622)"
         id="g17">
        <path
           d="m -24 13 c 0 1.105 -0.672 2 -1.5 2 -0.828 0 -1.5 -0.895 -1.5 -2 0 -1.105 0.672 -2 1.5 -2 0.828 0 1.5 0.895 1.5 2 z"
           transform="matrix(15.333333,0,0,11.5,414.99999,878.8622)"
           fill="#1890d0"
           id="path19" />
      </g>
    </clipPath>
    <linearGradient
       inkscape:collect="always"
       xlink:href="#linearGradient3764"
       id="linearGradient3253"
       gradientUnits="userSpaceOnUse"
       gradientTransform="matrix(0,-1,1,0,-1.5e-6,47.999998)"
       x1="1"
       x2="47" />
  </defs>
  <g
     id="g21">
    <path
       d="m 36.31 5 c 5.859 4.062 9.688 10.831 9.688 18.5 c 0 12.426 -10.07 22.5 -22.5 22.5 c -7.669 0 -14.438 -3.828 -18.5 -9.688 c 1.037 1.822 2.306 3.499 3.781 4.969 c 4.085 3.712 9.514 5.969 15.469 5.969 c 12.703 0 23 -10.298 23 -23 c 0 -5.954 -2.256 -11.384 -5.969 -15.469 c -1.469 -1.475 -3.147 -2.744 -4.969 -3.781 z m 4.969 3.781 c 3.854 4.113 6.219 9.637 6.219 15.719 c 0 12.703 -10.297 23 -23 23 c -6.081 0 -11.606 -2.364 -15.719 -6.219 c 4.16 4.144 9.883 6.719 16.219 6.719 c 12.703 0 23 -10.298 23 -23 c 0 -6.335 -2.575 -12.06 -6.719 -16.219 z"
       opacity="0.05"
       id="path23" />
    <path
       d="m 41.28 8.781 c 3.712 4.085 5.969 9.514 5.969 15.469 c 0 12.703 -10.297 23 -23 23 c -5.954 0 -11.384 -2.256 -15.469 -5.969 c 4.113 3.854 9.637 6.219 15.719 6.219 c 12.703 0 23 -10.298 23 -23 c 0 -6.081 -2.364 -11.606 -6.219 -15.719 z"
       opacity="0.1"
       id="path25" />
    <path
       d="m 31.25 2.375 c 8.615 3.154 14.75 11.417 14.75 21.13 c 0 12.426 -10.07 22.5 -22.5 22.5 c -9.708 0 -17.971 -6.135 -21.12 -14.75 a 23 23 0 0 0 44.875 -7 a 23 23 0 0 0 -16 -21.875 z"
       opacity="0.2"
       id="path27" />
  </g>
  <g
     id="g33" />
  <path
     style="fill:#209cc8;fill-opacity:1;fill-rule:nonzero;stroke:none"
     inkscape:connector-curvature="0"
     id="path67"
     d="m 31.996,24 c 0,4.418 -3.578,8 -8,8 -4.418,0 -8,-3.578 -8,-8 0,-4.418 3.578,-8 8,-8 4.418,0 8,3.582 8,8 m 0,0" />
  <path
     style="fill:#f9f9f9;fill-opacity:1;fill-rule:nonzero;stroke:none"
     inkscape:connector-curvature="0"
     id="path69"
     d="m 33.965,24 c 0,5.504 -4.461,9.965 -9.965,9.965 -5.508,0 -9.969,-4.461 -9.969,-9.965 0,-5.508 4.461,-9.969 9.969,-9.969 5.504,0 9.965,4.461 9.965,9.969 m 0,0" />
  <path
     style="fill:#6193c5;fill-opacity:1;fill-rule:nonzero;stroke:none"
     d="M 8.3125 7.1875 C 3.815827 11.385494 1 17.362683 1 24 C 1 34.961008 8.6739252 44.128715 18.9375 46.4375 L 27.25 32.40625 C 26.023 32.88325 24.73025 33.11725 23.40625 33.03125 C 22.07825 32.94525 20.76125 32.5235 19.53125 31.8125 C 18.45325 31.1915 17.55075 30.40675 16.84375 29.46875 C 16.14075 28.53475 15.6095 27.45275 15.3125 26.34375 C 15.0155 25.23075 14.9175 24.07025 15.0625 22.90625 C 15.178379 21.974263 15.603215 21.077072 16.03125 20.1875 L 8.3125 7.1875 z "
     id="path77" />
  <path
     style="fill:#209dc8;fill-opacity:1;fill-rule:nonzero;stroke:none"
     inkscape:connector-curvature="0"
     id="path71"
     d="m 31.961,24 c -0.09,4.336 -3.637,7.809 -7.973,7.809 -4.34,0 -7.883,-3.473 -7.977,-7.809 -0.059,-2.891 1.445,-5.586 3.938,-7.05 2.492,-1.465 5.582,-1.465 8.07,0 2.492,1.461 4,4.156 3.938,7.05 m 0,0" />
  <path
     style="fill:#95b9dd;fill-opacity:1;fill-rule:nonzero;stroke:none"
     d="M 29.5625 17 C 30.5855 17.828 31.50775 18.90575 32.09375 20.09375 C 32.68375 21.28475 33 22.60925 33 24.03125 C 33 25.27325 32.7705 26.45325 32.3125 27.53125 C 31.8555 28.60925 31.187 29.58925 30.375 30.40625 C 29.559 31.21925 28.578 31.89075 27.5 32.34375 C 26.634159 32.710866 25.669826 32.831306 24.6875 32.90625 L 17.15625 45.96875 C 19.316875 46.640742 21.618188 47 24 47 C 36.703 47 47 36.703 47 24 C 47 21.558948 46.610726 19.207366 45.90625 17 L 29.5625 17 z "
     id="path75" />
  <path
     style="fill:#678eb8;fill-opacity:1;fill-rule:nonzero;stroke:none"
     d="M 24 1 C 17.251531 1 11.176024 3.9021964 6.96875 8.53125 L 15.15625 22.65625 C 15.35925 21.35525 15.8245 20.105 16.5625 19 C 17.3005 17.898 18.30025 16.957 19.53125 16.25 C 20.60925 15.629 21.74625 15.23375 22.90625 15.09375 C 24.06225 14.94875 25.261 15.04275 26.375 15.34375 C 27.488 15.64475 28.53475 16.14075 29.46875 16.84375 C 30.22675 17.41775 30.813 18.21025 31.375 19.03125 L 46.4375 19 C 44.150667 8.7067872 34.982024 1 24 1 z "
     id="path73" />
  <path
     style="fill:#f9f9f9;fill-opacity:1;fill-rule:nonzero;stroke:none"
     inkscape:connector-curvature="0"
     id="path79"
     d="m 33,24 c 0,4.969 -4.03,9 -9,9 -4.973,0 -9,-4.03 -9,-9 0,-4.973 4.03,-9 9,-9 4.969,0 9,4.03 9,9 m 0,0" />
  <path
     d="m 31.999653,25 c -0.086,3.805 -3.195,6.844 -7,6.844 -3.805,0 -6.914,-3.039 -7,-6.844 -0.055,-2.539 1.266,-4.91 3.453,-6.195 2.191,-1.285 4.906,-1.285 7.094,0 2.188,1.285 3.512,3.656 3.453,6.195 m 0,0"
     id="use3255"
     inkscape:connector-curvature="0"
     style="fill:#000000;fill-opacity:1;fill-rule:nonzero;stroke:none;opacity:0.10000000000000001" />
  <path
     style="fill:#3d7fe6;fill-opacity:1;fill-rule:nonzero;stroke:none"
     inkscape:connector-curvature="0"
     id="path81"
     d="m 31,24 c -0.086,3.805 -3.195,6.844 -7,6.844 -3.805,0 -6.914,-3.039 -7,-6.844 -0.055,-2.539 1.266,-4.91 3.453,-6.195 2.191,-1.285 4.906,-1.285 7.094,0 C 29.735,19.09 31.059,21.461 31,24 m 0,0" />
  <g
     id="g83">
    <path
       d="m 40.03 7.531 c 3.712 4.084 5.969 9.514 5.969 15.469 0 12.703 -10.297 23 -23 23 c -5.954 0 -11.384 -2.256 -15.469 -5.969 4.178 4.291 10.01 6.969 16.469 6.969 c 12.703 0 23 -10.298 23 -23 0 -6.462 -2.677 -12.291 -6.969 -16.469 z"
       opacity="0.1"
       id="path85" />
  </g>
  <path
     style="opacity:0.1;fill:#000000;fill-opacity:1;fill-rule:nonzero;stroke:none"
     d="m 24,15 c -4.97,0 -9,4.027 -9,9 0,2.707919 1.201146,5.131237 3.09375,6.78125 -0.08456,-0.101738 -0.170375,-0.206859 -0.25,-0.3125 -0.703,-0.934 -1.23425,-2.016 -1.53125,-3.125 -0.297,-1.113 -0.395,-2.2735 -0.25,-3.4375 0.01321,-0.106247 0.04171,-0.207118 0.0625,-0.3125 l 0.03125,0.0086 c 0.0394,-0.252501 0.09702,-0.448081 0.15625,-0.696068 0.190936,-0.578016 0.393,-1.297657 0.664818,-1.862568 l -0.0086,0.01882 C 17.14538,20.694973 17.333793,20.342441 17.5625,20 c 0.738,-1.102 1.73775,-2.043 2.96875,-2.75 1.078,-0.621 2.215,-1.01625 3.375,-1.15625 1.156,-0.145 2.35475,-0.051 3.46875,0.25 1.113,0.301 2.15975,0.797 3.09375,1.5 0.136042,0.103018 0.24917,0.227754 0.375,0.34375 C 29.192659,16.245594 26.747565,15 24,15 z"
     id="use4028"
     inkscape:connector-curvature="0"
     sodipodi:nodetypes="sscccccccccccccccs" />
</svg>

<svg xmlns="http://www.w3.org/2000/svg" viewBox="0 0 48 48"><defs><clipPath><g transform="translate(0,-1004.3622)"><path d="m -24 13 c 0 1.105 -0.672 2 -1.5 2 -0.828 0 -1.5 -0.895 -1.5 -2 0 -1.105 0.672 -2 1.5 -2 0.828 0 1.5 0.895 1.5 2 z" transform="matrix(15.333333,0,0,11.5,414.99999,878.8622)" fill="#1890d0"/></g></clipPath><clipPath><g transform="translate(0,-1004.3622)"><path d="m -24 13 c 0 1.105 -0.672 2 -1.5 2 -0.828 0 -1.5 -0.895 -1.5 -2 0 -1.105 0.672 -2 1.5 -2 0.828 0 1.5 0.895 1.5 2 z" transform="matrix(15.333333,0,0,11.5,414.99999,878.8622)" fill="#1890d0"/></g></clipPath></defs><g><path d="m 36.31 5 c 5.859 4.062 9.688 10.831 9.688 18.5 c 0 12.426 -10.07 22.5 -22.5 22.5 c -7.669 0 -14.438 -3.828 -18.5 -9.688 c 1.037 1.822 2.306 3.499 3.781 4.969 c 4.085 3.712 9.514 5.969 15.469 5.969 c 12.703 0 23 -10.298 23 -23 c 0 -5.954 -2.256 -11.384 -5.969 -15.469 c -1.469 -1.475 -3.147 -2.744 -4.969 -3.781 z m 4.969 3.781 c 3.854 4.113 6.219 9.637 6.219 15.719 c 0 12.703 -10.297 23 -23 23 c -6.081 0 -11.606 -2.364 -15.719 -6.219 c 4.16 4.144 9.883 6.719 16.219 6.719 c 12.703 0 23 -10.298 23 -23 c 0 -6.335 -2.575 -12.06 -6.719 -16.219 z" opacity="0.05"/><path d="m 41.28 8.781 c 3.712 4.085 5.969 9.514 5.969 15.469 c 0 12.703 -10.297 23 -23 23 c -5.954 0 -11.384 -2.256 -15.469 -5.969 c 4.113 3.854 9.637 6.219 15.719 6.219 c 12.703 0 23 -10.298 23 -23 c 0 -6.081 -2.364 -11.606 -6.219 -15.719 z" opacity="0.1"/><path d="m 31.25 2.375 c 8.615 3.154 14.75 11.417 14.75 21.13 c 0 12.426 -10.07 22.5 -22.5 22.5 c -9.708 0 -17.971 -6.135 -21.12 -14.75 a 23 23 0 0 0 44.875 -7 a 23 23 0 0 0 -16 -21.875 z" opacity="0.2"/></g><path d="m 31.996 24 c 0 4.418 -3.578 8 -8 8 -4.418 0 -8 -3.578 -8 -8 0 -4.418 3.578 -8 8 -8 4.418 0 8 3.582 8 8 m 0 0" fill="#209cc8" fill-rule="nonzero" stroke="none" fill-opacity="1"/><path d="m 33.965 24 c 0 5.504 -4.461 9.965 -9.965 9.965 -5.508 0 -9.969 -4.461 -9.969 -9.965 0 -5.508 4.461 -9.969 9.969 -9.969 5.504 0 9.965 4.461 9.965 9.969 m 0 0" fill="#f9f9f9" fill-rule="nonzero" stroke="none" fill-opacity="1"/><path d="m 8.313 7.188 c -4.497 4.198 -7.313 10.175 -7.313 16.813 c 0 10.961 7.674 20.13 17.938 22.438 l 8.313 -14.03 c -1.227 0.477 -2.52 0.711 -3.844 0.625 c -1.328 -0.086 -2.645 -0.508 -3.875 -1.219 c -1.078 -0.621 -1.98 -1.406 -2.688 -2.344 c -0.703 -0.934 -1.234 -2.02 -1.531 -3.125 c -0.297 -1.113 -0.395 -2.273 -0.25 -3.438 c 0.116 -0.932 0.541 -1.829 0.969 -2.719 l -7.719 -13 z" fill="#6193c5" fill-rule="nonzero" stroke="none" fill-opacity="1"/><path d="m 31.961 24 c -0.09 4.336 -3.637 7.809 -7.973 7.809 -4.34 0 -7.883 -3.473 -7.977 -7.809 -0.059 -2.891 1.445 -5.586 3.938 -7.05 2.492 -1.465 5.582 -1.465 8.07 0 2.492 1.461 4 4.156 3.938 7.05 m 0 0" fill="#209dc8" fill-rule="nonzero" stroke="none" fill-opacity="1"/><path d="m 29.563 17 c 1.023 0.828 1.945 1.906 2.531 3.094 c 0.59 1.191 0.906 2.515 0.906 3.938 c 0 1.242 -0.23 2.422 -0.688 3.5 c -0.457 1.078 -1.125 2.058 -1.938 2.875 c -0.816 0.813 -1.797 1.485 -2.875 1.938 c -0.866 0.367 -1.83 0.488 -2.813 0.563 l -7.531 13.06 c 2.161 0.672 4.462 1.031 6.844 1.031 c 12.703 0 23 -10.297 23 -23 c 0 -2.441 -0.389 -4.793 -1.094 -7 l -16.344 0 z" fill="#95b9dd" fill-rule="nonzero" stroke="none" fill-opacity="1"/><path d="m 24 1 c -6.748 0 -12.824 2.902 -17.03 7.531 l 8.188 14.13 c 0.203 -1.301 0.668 -2.551 1.406 -3.656 c 0.738 -1.102 1.738 -2.043 2.969 -2.75 c 1.078 -0.621 2.215 -1.016 3.375 -1.156 c 1.156 -0.145 2.355 -0.051 3.469 0.25 c 1.113 0.301 2.16 0.797 3.094 1.5 c 0.758 0.574 1.344 1.366 1.906 2.188 l 15.06 -0.031 c -2.287 -10.293 -11.455 -18 -22.438 -18 z" fill="#678eb8" fill-rule="nonzero" stroke="none" fill-opacity="1"/><path d="m 33 24 c 0 4.969 -4.03 9 -9 9 -4.973 0 -9 -4.03 -9 -9 0 -4.973 4.03 -9 9 -9 4.969 0 9 4.03 9 9 m 0 0" fill="#f9f9f9" fill-rule="nonzero" stroke="none" fill-opacity="1"/><path d="m 32 25 c -0.086 3.805 -3.195 6.844 -7 6.844 -3.805 0 -6.914 -3.039 -7 -6.844 -0.055 -2.539 1.266 -4.91 3.453 -6.195 2.191 -1.285 4.906 -1.285 7.094 0 2.188 1.285 3.512 3.656 3.453 6.195 m 0 0" opacity="0.1" fill="#000" fill-rule="nonzero" stroke="none" fill-opacity="1"/><path d="m 31,24 c -0.086,3.805 -3.195,6.844 -7,6.844 -3.805,0 -6.914,-3.039 -7,-6.844 -0.055,-2.539 1.266,-4.91 3.453,-6.195 2.191,-1.285 4.906,-1.285 7.094,0 C 29.735,19.09 31.059,21.461 31,24 m 0,0" fill="#3d7fe6" fill-rule="nonzero" stroke="none" fill-opacity="1"/><g><path d="m 40.03 7.531 c 3.712 4.084 5.969 9.514 5.969 15.469 0 12.703 -10.297 23 -23 23 c -5.954 0 -11.384 -2.256 -15.469 -5.969 4.178 4.291 10.01 6.969 16.469 6.969 c 12.703 0 23 -10.298 23 -23 0 -6.462 -2.677 -12.291 -6.969 -16.469 z" opacity="0.1"/></g><path d="m 24 15 c -4.97 0 -9 4.03 -9 9 0 2.708 1.201 5.131 3.094 6.781 -0.085 -0.102 -0.17 -0.207 -0.25 -0.313 -0.703 -0.934 -1.234 -2.02 -1.531 -3.125 -0.297 -1.113 -0.395 -2.273 -0.25 -3.438 0.013 -0.106 0.042 -0.207 0.063 -0.313 l 0.031 0.009 c 0.039 -0.253 0.097 -0.448 0.156 -0.696 0.191 -0.578 0.393 -1.298 0.665 -1.863 l -0.009 0.019 c 0.177 -0.368 0.365 -0.72 0.594 -1.063 c 0.738 -1.102 1.738 -2.043 2.969 -2.75 1.078 -0.621 2.215 -1.016 3.375 -1.156 1.156 -0.145 2.355 -0.051 3.469 0.25 1.113 0.301 2.16 0.797 3.094 1.5 0.136 0.103 0.249 0.228 0.375 0.344 c -1.651 -1.942 -4.096 -3.188 -6.844 -3.188 z" opacity="0.1" fill="#000" fill-rule="nonzero" stroke="none" fill-opacity="1"/></svg>
